X:1
T:Ash Grove, 12.11.12.11 D
T:Ash Grove, 12.11.12.11 D
T:Welsh melody
T:Public Domain Courtesy of the Cyber Hymnal™
C:Welsh melody
Z:Public Domain
Z:Courtesy of the Cyber Hymnal™
%%score ( 1 2 ) ( 3 4 )
L:1/8
Q:1/4=115
M:3/4
K:G
V:1 treble 
V:2 treble 
V:3 bass 
V:4 bass 
V:1
 D2 | [DG]2 [DB]2 (dc) | [DB]2 G2 [EG]2 | [EA]2 (cB) (AG) | [DF]2 D3 D | [DG]2 (BA) (GF) | %6
 [CE]2 C2 [CE]2 | [B,D]2 [DG]2 [DF]2 | [DG]4 D2 | [DG]2 [DB]2 (dc) | [DB]2 G2 [EG]2 | %11
 [EA]2 (cB) (AG) | [DF]2 D3 D | [DG]2 (BA) (GF) | [CE]2 C2 [CE]2 | [B,D]2 [DG]2 [DF]2 | %16
 [DG]4 ([GB][Ac]) | [Bd]2 ([GB][Ac]) ([Bd][ce]) | [Bd]2 [Ac]2 [GB]2 | [Ac]2 ([FA][GB]) ([Ac][Bd]) | %20
 [Ac]2 [GB]2 [FA]2 | [GB]2 (GA) (Bc) | [GB]2 [FA]2 [EG]2 | [DF]2 [Fd]2 [E^c]2 | [Fd]4 D2 | %25
 [DG]2 [DB]2 (dc) | [DB]2 G2 [EG]2 | [EA]2 (cB) (AG) | [DF]2 D2 D2 | [DG]2 (BA) (GF) | %30
 [CE]2 C2 [CE]2 | [B,D]2 [DG]2 [DF]2 | [DG]4 |] %33
V:2
 D2 | x4 D2 | x6 | x2 E2 E2 | x2 D3 D | x2 D2 D2 | x6 | x6 | x4 D2 | x4 D2 | x2 G2 x2 | x2 E2 E2 | %12
 x2 D3 D | x2 D2 D2 | x2 C2 x2 | x6 | x6 | x6 | x6 | x6 | x6 | x4 G2 | x6 | x6 | x4 D2 | x4 D2 | %26
 x2 G2 x2 | x2 E2 E2 | x2 D2 D2 | x2 D2 D2 | x2 C2 x2 | x6 | x4 |] %33
V:3
 D,2 | [G,,B,]2 G,2 [F,A,]2 | G,2 [B,,D]2 [E,B,]2 | [C,A,]2 [A,,A,]2 [C,A,]2 | %4
 [D,A,]2 [D,F,]3 [C,F,] | [B,,G,]2 [G,,G,]2 [B,,G,]2 | [C,G,]2 [E,G,]2 [A,,G,]2 | %7
 [D,G,]2 [D,B,]2 [D,C]2 | [G,B,]4 D,2 | [G,,B,]2 G,2 [F,A,]2 | G,2 [B,,D]2 [E,B,]2 | %11
 [C,A,]2 [A,,A,]2 [C,A,]2 | [D,A,]2 [D,F,]3 [C,F,] | [B,,G,]2 [G,,G,]2 [B,,G,]2 | %14
 [C,E,]2 ([A,,C,][B,,D,]) ([C,E,][D,F,]) | [D,G,]2 [D,B,]2 [D,C]2 | [G,B,]4 G,2 | G,2 G,2 G,2 | %18
 G,2 G,2 G,2 | [D,D]2 [D,D]2 [D,D]2 | [D,D]2 [D,D]2 [D,D]2 | [G,D]2 (B,C) (DE) | %22
 [G,D]2 [^D,B,]2 [E,B,]2 | A,2 A,2 [A,,A,]2 | [D,A,]4 D,2 | [G,,B,]2 G,2 [F,A,]2 | %26
 G,2 [B,,D]2 [E,B,]2 | [C,A,]2 [A,,A,]2 [C,A,]2 | [D,A,]2 F,2 F,2 | [B,,G,]2 [G,,G,]2 [B,,G,]2 | %30
 [C,G,]2 [E,G,]2 [A,,G,]2 | [D,G,]2 [D,B,]2 [D,C]2 | [G,B,]4 |] %33
V:4
 D,2 | x6 | G,2 x4 | x6 | x6 | x6 | x6 | x6 | x4 D,2 | x2 G,2 x2 | G,2 x4 | x6 | x6 | x6 | x6 | %15
 x6 | x4 G,2 | G,2 G,2 G,2 | G,2 G,2 G,2 | x6 | x6 | x2 G,2 G,2 | x6 | A,2 A,2 x2 | x4 D,2 | %25
 x2 G,2 x2 | G,2 x4 | x6 | x2 (D,E,) (D,C,) | x6 | x6 | x6 | x4 |] %33

